_includes/icons/ios-snapchat.svg

<svg fill="#666" height="50" viewBox="0 0 50 50" width="50" xmlns="http://www.w3.org/2000/svg"><path d="m24.5625 3.34375c-.984375 0-3.074219.152344-5.34375 1.15625s-4.722656 2.917969-6.25 6.34375c-1.152344 2.582031-.8125 6.339844-.625 9.34375.015625.222656.019531.414063.03125.625-.09375.042969-.011719.0625-.3125.0625-.453125 0-1.058594-.148437-1.8125-.5-.300781-.140625-.621094-.1875-.9375-.1875-.574219 0-1.136719.171875-1.625.46875s-.957031.757813-1.09375 1.46875c-.082031.4375.011719 1.09375.4375 1.625s1.085938.964844 2.125 1.375c.226563.089844.457031.175781.6875.25.46875.148438 1.019531.308594 1.4375.53125s.664063.484375.75.6875c.09375.21875.121094.558594-.1875 1.1875-.011719.019531-.023437.042969-.03125.0625-.003906.015625-.019531.027344-.03125.0625-.125.28125-2.863281 6.25-8.5625 7.1875-.734375.121094-1.257812.761719-1.21875 1.5.011719.214844.082031.445313.15625.625.277344.652344.871094 1.132813 1.84375 1.5625.898438.398438 2.296875.75 4.15625 1.0625.046875.128906.109375.371094.1875.71875 0 .007813-.003906.023438 0 .03125.070313.324219.136719.679688.25 1.0625.113281.390625.402344.773438.75.96875.347656.195313.675781.21875.875.21875.414063 0 .757813-.085937 1.125-.15625.605469-.117187 1.335938-.25 2.28125-.25.523438 0 1.070313.035156 1.625.125.949219.15625 1.882813.773438 3 1.5625 1.617188 1.144531 3.558594 2.53125 6.46875 2.53125.050781 0 .105469-.027344.15625-.03125.050781.003906.105469 0 .15625 0 .082031.003906.167969.03125.25.03125 2.910156 0 4.847656-1.386719 6.46875-2.53125 1.113281-.789062 2.050781-1.40625 3-1.5625.554688-.089844 1.101563-.125 1.625-.125.914063 0 1.636719.117188 2.3125.25.429688.085938.757813.125 1.09375.125h.0625c.308594 0 .664063-.085937.96875-.3125.304688-.226562.507813-.550781.59375-.84375.113281-.382812.175781-.75.25-1.09375.082031-.382812.144531-.589844.1875-.71875 1.859375-.3125 3.257813-.664062 4.15625-1.0625.972656-.429687 1.566406-.914062 1.84375-1.5625.082031-.1875.144531-.410156.15625-.625.039063-.734375-.488281-1.378906-1.21875-1.5-2.875-.472656-4.984375-2.203125-6.40625-3.875-1.414062-1.664062-2.117187-3.253906-2.15625-3.34375 0-.011719 0-.019531 0-.03125-.007812-.019531-.019531-.042969-.03125-.0625-.3125-.628906-.3125-.964844-.21875-1.1875.085938-.203125.332031-.464844.75-.6875s.964844-.382812 1.4375-.53125c.234375-.074219.46875-.164062.6875-.25.910156-.359375 1.535156-.734375 1.96875-1.1875s.632813-1.015625.625-1.5c-.019531-1.023437-.78125-1.703125-1.65625-2.03125l-.03125-.03125c-.007812-.003906-.023437.003906-.03125 0-.359375-.144531-.738281-.21875-1.125-.21875-.261719 0-.625.011719-1.0625.21875-.679687.320313-1.25.476563-1.6875.5-.027344 0-.003906 0-.03125 0s-.007812.003906-.03125 0c-.128906-.015625-.089844-.039062-.15625-.0625.011719-.171875.019531-.324219.03125-.5v-.125c.191406-3.003906.527344-6.757812-.625-9.34375-1.527344-3.425781-3.976562-5.371094-6.25-6.375-2.273437-1.003906-4.355469-1.125-5.34375-1.125h-.09375c-.011719 0-.019531 0-.03125 0zm0 2h.875c.800781 0 2.617188.125 4.53125.96875 1.914063.84375 3.929688 2.378906 5.25 5.34375.75 1.679688.628906 5.40625.4375 8.40625v.125c-.027344.417969-.074219.824219-.09375 1.21875-.007812.28125.105469.554688.3125.75.15625.160156.8125.675781 1.90625.71875h.03125.03125c.808594-.03125 1.65625-.277344 2.53125-.6875.023438-.011719.132813-.03125.21875-.03125.125 0 .289063.03125.375.0625.007813.003906.023438-.003906.03125 0 .019531.011719.042969.023438.0625.03125.234375.082031.34375.175781.375.21875.007813.007813-.003906.027344 0 .03125-.011719.019531-.023437.019531-.0625.0625-.144531.152344-.542969.425781-1.28125.71875-.121094.046875-.304687.117188-.53125.1875-.472656.148438-1.144531.351563-1.78125.6875-.636719.335938-1.308594.832031-1.65625 1.65625-.371094.871094-.214844 1.828125.21875 2.75.003906.015625-.003906.019531 0 .03125.015625.042969.03125.066406.03125.0625.089844.207031.847656 1.972656 2.46875 3.875 1.457031 1.710938 3.671875 3.480469 6.625 4.25-.125.082031-.039062.078125-.28125.1875-.71875.316406-1.953125.65625-3.96875.96875-.570312.085938-.996094.625-1.15625 1s-.242187.746094-.34375 1.21875c-.046875.21875-.105469.417969-.15625.625-.136719-.011719-.25-.011719-.5-.0625-.726562-.140625-1.605469-.28125-2.6875-.28125-.640625 0-1.28125.046875-1.9375.15625-1.535156.257813-2.730469 1.117188-3.84375 1.90625-1.625 1.144531-3.007812 2.15625-5.3125 2.15625-.09375 0-.1875.003906-.28125 0-.042969-.003906-.082031-.003906-.125 0-.039062.003906-.109375 0-.15625 0-2.304687 0-3.695312-1.011719-5.3125-2.15625-1.117187-.789062-2.308594-1.652344-3.84375-1.90625-.65625-.109375-1.296875-.15625-1.9375-.15625-1.152344 0-2.082031.164063-2.6875.28125-.242187.046875-.332031.074219-.46875.09375-.054687-.21875-.136719-.425781-.1875-.65625-.09375-.429687-.15625-.808594-.3125-1.1875-.078125-.1875-.1875-.394531-.375-.59375s-.464844-.359375-.78125-.40625c-2.011719-.3125-3.28125-.683594-4-1-.25-.109375-.15625-.101562-.28125-.1875 6.230469-1.609375 8.941406-7.773437 9.09375-8.125.011719-.023437.019531-.039062.03125-.0625.003906-.011719-.003906-.015625 0-.03125.433594-.921875.589844-1.878906.21875-2.75-.351562-.824219-1.019531-1.320312-1.65625-1.65625-.636719-.335937-1.277344-.539062-1.75-.6875-.230469-.074219-.445312-.140625-.5625-.1875-.839844-.332031-1.207031-.648437-1.3125-.78125 0 .019531-.023437-.066406.125-.15625.164063-.097656.453125-.15625.59375-.15625.078125 0 .074219.003906.0625 0 .9375.4375 1.828125.6875 2.6875.6875 1.1875 0 1.898438-.515625 2.09375-.71875.195313-.199219.296875-.472656.28125-.75-.023437-.4375-.066406-.882812-.09375-1.34375-.1875-3.003906-.3125-6.726562.4375-8.40625 1.320313-2.960937 3.308594-4.5 5.21875-5.34375s3.761719-.96875 4.5625-.96875z"/></svg>

<svg xmlns="http://www.w3.org/2000/svg" viewBox="0 0 50 50" width="50" height="50" fill="#666"><path d="M 24.5625 3.34375 C 23.578125 3.34375 21.488281 3.496094 19.21875 4.5 C 16.949219 5.503906 14.496094 7.417969 12.96875 10.84375 C 11.816406 13.425781 12.15625 17.183594 12.34375 20.1875 C 12.359375 20.410156 12.363281 20.601563 12.375 20.8125 C 12.28125 20.855469 12.363281 20.875 12.0625 20.875 C 11.609375 20.875 11.003906 20.726563 10.25 20.375 C 9.949219 20.234375 9.628906 20.1875 9.3125 20.1875 C 8.738281 20.1875 8.175781 20.359375 7.6875 20.65625 C 7.199219 20.953125 6.730469 21.414063 6.59375 22.125 C 6.511719 22.5625 6.605469 23.21875 7.03125 23.75 C 7.457031 24.28125 8.117188 24.714844 9.15625 25.125 C 9.382813 25.214844 9.613281 25.300781 9.84375 25.375 C 10.3125 25.523438 10.863281 25.683594 11.28125 25.90625 C 11.699219 26.128906 11.945313 26.390625 12.03125 26.59375 C 12.125 26.8125 12.152344 27.152344 11.84375 27.78125 C 11.832031 27.800781 11.820313 27.824219 11.8125 27.84375 C 11.808594 27.859375 11.792969 27.871094 11.78125 27.90625 C 11.65625 28.1875 8.917969 34.15625 3.21875 35.09375 C 2.484375 35.214844 1.960938 35.855469 2 36.59375 C 2.011719 36.808594 2.082031 37.039063 2.15625 37.21875 C 2.433594 37.871094 3.027344 38.351563 4 38.78125 C 4.898438 39.179688 6.296875 39.53125 8.15625 39.84375 C 8.203125 39.972656 8.265625 40.214844 8.34375 40.5625 C 8.34375 40.570313 8.339844 40.585938 8.34375 40.59375 C 8.414063 40.917969 8.480469 41.273438 8.59375 41.65625 C 8.707031 42.046875 8.996094 42.429688 9.34375 42.625 C 9.691406 42.820313 10.019531 42.84375 10.21875 42.84375 C 10.632813 42.84375 10.976563 42.757813 11.34375 42.6875 C 11.949219 42.570313 12.679688 42.4375 13.625 42.4375 C 14.148438 42.4375 14.695313 42.472656 15.25 42.5625 C 16.199219 42.71875 17.132813 43.335938 18.25 44.125 C 19.867188 45.269531 21.808594 46.65625 24.71875 46.65625 C 24.769531 46.65625 24.824219 46.628906 24.875 46.625 C 24.925781 46.628906 24.980469 46.625 25.03125 46.625 C 25.113281 46.628906 25.199219 46.65625 25.28125 46.65625 C 28.191406 46.65625 30.128906 45.269531 31.75 44.125 C 32.863281 43.335938 33.800781 42.71875 34.75 42.5625 C 35.304688 42.472656 35.851563 42.4375 36.375 42.4375 C 37.289063 42.4375 38.011719 42.554688 38.6875 42.6875 C 39.117188 42.773438 39.445313 42.8125 39.78125 42.8125 L 39.84375 42.8125 C 40.152344 42.8125 40.507813 42.726563 40.8125 42.5 C 41.117188 42.273438 41.320313 41.949219 41.40625 41.65625 C 41.519531 41.273438 41.582031 40.90625 41.65625 40.5625 C 41.738281 40.179688 41.800781 39.972656 41.84375 39.84375 C 43.703125 39.53125 45.101563 39.179688 46 38.78125 C 46.972656 38.351563 47.566406 37.867188 47.84375 37.21875 C 47.925781 37.03125 47.988281 36.808594 48 36.59375 C 48.039063 35.859375 47.511719 35.214844 46.78125 35.09375 C 43.90625 34.621094 41.796875 32.890625 40.375 31.21875 C 38.960938 29.554688 38.257813 27.964844 38.21875 27.875 C 38.21875 27.863281 38.21875 27.855469 38.21875 27.84375 C 38.210938 27.824219 38.199219 27.800781 38.1875 27.78125 C 37.875 27.152344 37.875 26.816406 37.96875 26.59375 C 38.054688 26.390625 38.300781 26.128906 38.71875 25.90625 C 39.136719 25.683594 39.683594 25.523438 40.15625 25.375 C 40.390625 25.300781 40.625 25.210938 40.84375 25.125 C 41.753906 24.765625 42.378906 24.390625 42.8125 23.9375 C 43.246094 23.484375 43.445313 22.921875 43.4375 22.4375 C 43.417969 21.414063 42.65625 20.734375 41.78125 20.40625 L 41.75 20.375 C 41.742188 20.371094 41.726563 20.378906 41.71875 20.375 C 41.359375 20.230469 40.980469 20.15625 40.59375 20.15625 C 40.332031 20.15625 39.96875 20.167969 39.53125 20.375 C 38.851563 20.695313 38.28125 20.851563 37.84375 20.875 C 37.816406 20.875 37.839844 20.875 37.8125 20.875 C 37.785156 20.875 37.804688 20.878906 37.78125 20.875 C 37.652344 20.859375 37.691406 20.835938 37.625 20.8125 C 37.636719 20.640625 37.644531 20.488281 37.65625 20.3125 L 37.65625 20.1875 C 37.847656 17.183594 38.183594 13.429688 37.03125 10.84375 C 35.503906 7.417969 33.054688 5.472656 30.78125 4.46875 C 28.507813 3.464844 26.425781 3.34375 25.4375 3.34375 L 25.34375 3.34375 C 25.332031 3.34375 25.324219 3.34375 25.3125 3.34375 Z M 24.5625 5.34375 L 25.4375 5.34375 C 26.238281 5.34375 28.054688 5.46875 29.96875 6.3125 C 31.882813 7.15625 33.898438 8.691406 35.21875 11.65625 C 35.96875 13.335938 35.847656 17.0625 35.65625 20.0625 L 35.65625 20.1875 C 35.628906 20.605469 35.582031 21.011719 35.5625 21.40625 C 35.554688 21.6875 35.667969 21.960938 35.875 22.15625 C 36.03125 22.316406 36.6875 22.832031 37.78125 22.875 C 37.792969 22.875 37.800781 22.875 37.8125 22.875 C 37.824219 22.875 37.832031 22.875 37.84375 22.875 C 38.652344 22.84375 39.5 22.597656 40.375 22.1875 C 40.398438 22.175781 40.507813 22.15625 40.59375 22.15625 C 40.71875 22.15625 40.882813 22.1875 40.96875 22.21875 C 40.976563 22.222656 40.992188 22.214844 41 22.21875 C 41.019531 22.230469 41.042969 22.242188 41.0625 22.25 C 41.296875 22.332031 41.40625 22.425781 41.4375 22.46875 C 41.445313 22.476563 41.433594 22.496094 41.4375 22.5 C 41.425781 22.519531 41.414063 22.519531 41.375 22.5625 C 41.230469 22.714844 40.832031 22.988281 40.09375 23.28125 C 39.972656 23.328125 39.789063 23.398438 39.5625 23.46875 C 39.089844 23.617188 38.417969 23.820313 37.78125 24.15625 C 37.144531 24.492188 36.472656 24.988281 36.125 25.8125 C 35.753906 26.683594 35.910156 27.640625 36.34375 28.5625 C 36.347656 28.578125 36.339844 28.582031 36.34375 28.59375 C 36.359375 28.636719 36.375 28.660156 36.375 28.65625 C 36.464844 28.863281 37.222656 30.628906 38.84375 32.53125 C 40.300781 34.242188 42.515625 36.011719 45.46875 36.78125 C 45.34375 36.863281 45.429688 36.859375 45.1875 36.96875 C 44.46875 37.285156 43.234375 37.625 41.21875 37.9375 C 40.648438 38.023438 40.222656 38.5625 40.0625 38.9375 C 39.902344 39.3125 39.820313 39.683594 39.71875 40.15625 C 39.671875 40.375 39.613281 40.574219 39.5625 40.78125 C 39.425781 40.769531 39.3125 40.769531 39.0625 40.71875 C 38.335938 40.578125 37.457031 40.4375 36.375 40.4375 C 35.734375 40.4375 35.09375 40.484375 34.4375 40.59375 C 32.902344 40.851563 31.707031 41.710938 30.59375 42.5 C 28.96875 43.644531 27.585938 44.65625 25.28125 44.65625 C 25.1875 44.65625 25.09375 44.660156 25 44.65625 C 24.957031 44.652344 24.917969 44.652344 24.875 44.65625 C 24.835938 44.660156 24.765625 44.65625 24.71875 44.65625 C 22.414063 44.65625 21.023438 43.644531 19.40625 42.5 C 18.289063 41.710938 17.097656 40.847656 15.5625 40.59375 C 14.90625 40.484375 14.265625 40.4375 13.625 40.4375 C 12.472656 40.4375 11.542969 40.601563 10.9375 40.71875 C 10.695313 40.765625 10.605469 40.792969 10.46875 40.8125 C 10.414063 40.59375 10.332031 40.386719 10.28125 40.15625 C 10.1875 39.726563 10.125 39.347656 9.96875 38.96875 C 9.890625 38.78125 9.78125 38.574219 9.59375 38.375 C 9.40625 38.175781 9.128906 38.015625 8.8125 37.96875 C 6.800781 37.65625 5.53125 37.285156 4.8125 36.96875 C 4.5625 36.859375 4.65625 36.867188 4.53125 36.78125 C 10.761719 35.171875 13.472656 29.007813 13.625 28.65625 C 13.636719 28.632813 13.644531 28.617188 13.65625 28.59375 C 13.660156 28.582031 13.652344 28.578125 13.65625 28.5625 C 14.089844 27.640625 14.246094 26.683594 13.875 25.8125 C 13.523438 24.988281 12.855469 24.492188 12.21875 24.15625 C 11.582031 23.820313 10.941406 23.617188 10.46875 23.46875 C 10.238281 23.394531 10.023438 23.328125 9.90625 23.28125 C 9.066406 22.949219 8.699219 22.632813 8.59375 22.5 C 8.59375 22.519531 8.570313 22.433594 8.71875 22.34375 C 8.882813 22.246094 9.171875 22.1875 9.3125 22.1875 C 9.390625 22.1875 9.386719 22.191406 9.375 22.1875 C 10.3125 22.625 11.203125 22.875 12.0625 22.875 C 13.25 22.875 13.960938 22.359375 14.15625 22.15625 C 14.351563 21.957031 14.453125 21.683594 14.4375 21.40625 C 14.414063 20.96875 14.371094 20.523438 14.34375 20.0625 C 14.15625 17.058594 14.03125 13.335938 14.78125 11.65625 C 16.101563 8.695313 18.089844 7.15625 20 6.3125 C 21.910156 5.46875 23.761719 5.34375 24.5625 5.34375 Z"/></svg>
